X:64
T:Fox Hunter's Reel, The
Z:Fiddlers often play this in the key of A. 
E:7
I:speed 350
R:reel
M:C|
K:G
d2BG d2BG|d2BG AGEG|d2BG d2BG|AcBG AGEG::\
~D3B BABG|DGBG AGEG|~D3B BABG|AcBG AGEG|\
~D3B BABG|DGBG AGEG|DB~B2 DA~A2|AcBG AGEG||\
gedB G2Bd|gdBd eA~A2|gedB G2BG|ABcd eA~A2::\
dggf ~g3z|dg~g2 (3efg d^c|dggf ~g3d|(3efg dB AGAB::\
G2BG dGBG|GBBG AGAB|G2BG dGBd|(3efg dB AGAB:|**
<end>
<start>
